public/facebook-circle.svg

<?xml version="1.0" encoding="utf-8"?><!-- Uploaded to: SVG Repo, www.svgrepo.com, Generator: SVG Repo Mixer Tools -->
<svg fill="#000000" width="800px" height="800px" viewBox="0 0 24 24" xmlns="http://www.w3.org/2000/svg">
<path d="M12 2.03998C6.5 2.03998 2 6.52998 2 12.06C2 17.06 5.66 21.21 10.44 21.96V14.96H7.9V12.06H10.44V9.84998C10.44 7.33998 11.93 5.95998 14.22 5.95998C15.31 5.95998 16.45 6.14998 16.45 6.14998V8.61998H15.19C13.95 8.61998 13.56 9.38998 13.56 10.18V12.06H16.34L15.89 14.96H13.56V21.96C15.9164 21.5878 18.0622 20.3855 19.6099 18.57C21.1576 16.7546 22.0054 14.4456 22 12.06C22 6.52998 17.5 2.03998 12 2.03998Z"/>
</svg>

<svg
  className='w-5 h-5'
  fill='currentColor'
  viewBox='0 0 24 24'
  aria-hidden='true'>
    <path
      fillRule='evenodd'
      d='M22 12c0-5.523-4.477-10-10-10S2 6.477 2 12c0 4.991 3.657 9.128 8.438 9.878v-6.987h-2.54V12h2.54V9.797c0-2.506 1.492-3.89 3.777-3.89 1.094 0 2.238.195 2.238.195v2.46h-1.26c-1.243 0-1.63.771-1.63 1.562V12h2.773l-.443 2.89h-2.33v6.988C18.343 21.128 22 16.991 22 12z'
      clipRule='evenodd'/>
</svg>
